_site/images/verification-page/deposit-icon-white.svg

<svg fill="none" height="110" viewBox="0 0 110 110" width="110" xmlns="http://www.w3.org/2000/svg" xmlns:xlink="http://www.w3.org/1999/xlink"><filter id="a" color-interpolation-filters="sRGB" filterUnits="userSpaceOnUse" height="110" width="110" x="0" y="0"><feFlood flood-opacity="0" result="BackgroundImageFix"/><feColorMatrix in="SourceAlpha" result="hardAlpha" type="matrix" values="0 0 0 0 0 0 0 0 0 0 0 0 0 0 0 0 0 0 127 0"/><feOffset dy="6"/><feGaussianBlur stdDeviation="7.5"/><feColorMatrix type="matrix" values="0 0 0 0 0.164706 0 0 0 0 0.439216 0 0 0 0 0.690196 0 0 0 0.15 0"/><feBlend in2="BackgroundImageFix" mode="normal" result="effect1_dropShadow_3524:17091"/><feBlend in="SourceGraphic" in2="effect1_dropShadow_3524:17091" mode="normal" result="shape"/></filter><g filter="url(#a)"><rect fill="#f9fcff" height="80" rx="25" width="80" x="15" y="9"/></g><path d="m71.875 51.3106v-4.6211c.6953-.7105 1.125-1.6818 1.125-2.7519 0-1.0702-.4297-2.0416-1.125-2.7519v-6.9513c0-1.7834-1.451-3.2344-3.2344-3.2344h-28.4062c-1.7834 0-3.2344 1.451-3.2344 3.2344v29.5312c0 1.7834 1.451 3.2344 3.2344 3.2344h28.4062c1.7834 0 3.2344-1.451 3.2344-3.2344v-6.9512c.6953-.7104 1.125-1.6817 1.125-2.7519s-.4297-2.0415-1.125-2.7519zm-1.125-7.3731c0 .9305-.7571 1.6875-1.6875 1.6875h-1.125v-3.375h1.125c.9304 0 1.6875.757 1.6875 1.6875zm-5.0625-2.8125v5.625 4.5 5.625 2.9531c0 .5428-.4416.9844-.9844.9844h-20.5312c-.5428 0-.9844-.4416-.9844-.9844v-21.6562c0-.5428.4416-.9844.9844-.9844h20.5312c.5428 0 .9844.4416.9844.9844zm2.25 6.75h1.125c.191 0 .3787-.0144.5625-.0409v2.3317c-.1838-.0265-.3715-.0409-.5625-.0409h-1.125zm0 4.5h1.125c.9304 0 1.6875.757 1.6875 1.6875s-.7571 1.6875-1.6875 1.6875h-1.125zm.7031 12.375h-28.4062c-.5428 0-.9844-.4416-.9844-.9844v-29.5312c0-.5428.4416-.9844.9844-.9844h28.4062c.5428 0 .9844.4416.9844.9844v5.8065c-.1838-.0265-.3715-.0409-.5625-.0409h-1.125v-1.8281c0-1.7834-1.451-3.2344-3.2344-3.2344h-20.5312c-1.7834 0-3.2344 1.451-3.2344 3.2344v21.6562c0 1.7834 1.451 3.2344 3.2344 3.2344h20.5312c1.7834 0 3.2344-1.451 3.2344-3.2344v-1.8281h1.125c.191 0 .3787-.0144.5625-.0409v5.8065c0 .5428-.4416.9844-.9844.9844z" fill="#00769d"/><path d="m50.5999 46.5-2.5999 2.5 2.5999 2.5m7.8002-5 2.5999 2.5-2.5999 2.5m-5.2004 2.5 2.6-10" stroke="#00769d" stroke-linecap="round" stroke-linejoin="round" stroke-width="2"/></svg>

<svg width="110" height="110" viewBox="0 0 110 110" fill="none" xmlns="http://www.w3.org/2000/svg">
<g filter="url(#filter0_d_3524:17091)">
<rect x="15" y="9" width="80" height="80" rx="25" fill="#F9FCFF"/>
</g>
<path d="M71.875 51.3106V46.6895C72.5703 45.979 73 45.0077 73 43.9376C73 42.8674 72.5703 41.896 71.875 41.1857V34.2344C71.875 32.451 70.424 31 68.6406 31H40.2344C38.451 31 37 32.451 37 34.2344V63.7656C37 65.549 38.451 67 40.2344 67H68.6406C70.424 67 71.875 65.549 71.875 63.7656V56.8144C72.5703 56.104 73 55.1327 73 54.0625C73 52.9923 72.5703 52.021 71.875 51.3106ZM70.75 43.9375C70.75 44.868 69.9929 45.625 69.0625 45.625H67.9375V42.25H69.0625C69.9929 42.25 70.75 43.007 70.75 43.9375ZM65.6875 41.125V46.75V51.25V56.875V59.8281C65.6875 60.3709 65.2459 60.8125 64.7031 60.8125H44.1719C43.6291 60.8125 43.1875 60.3709 43.1875 59.8281V38.1719C43.1875 37.6291 43.6291 37.1875 44.1719 37.1875H64.7031C65.2459 37.1875 65.6875 37.6291 65.6875 38.1719V41.125ZM67.9375 47.875H69.0625C69.2535 47.875 69.4412 47.8606 69.625 47.8341V50.1658C69.4412 50.1393 69.2535 50.1249 69.0625 50.1249H67.9375V47.875ZM67.9375 52.375H69.0625C69.9929 52.375 70.75 53.132 70.75 54.0625C70.75 54.993 69.9929 55.75 69.0625 55.75H67.9375V52.375ZM68.6406 64.75H40.2344C39.6916 64.75 39.25 64.3084 39.25 63.7656V34.2344C39.25 33.6916 39.6916 33.25 40.2344 33.25H68.6406C69.1834 33.25 69.625 33.6916 69.625 34.2344V40.0409C69.4412 40.0144 69.2535 40 69.0625 40H67.9375V38.1719C67.9375 36.3885 66.4865 34.9375 64.7031 34.9375H44.1719C42.3885 34.9375 40.9375 36.3885 40.9375 38.1719V59.8281C40.9375 61.6115 42.3885 63.0625 44.1719 63.0625H64.7031C66.4865 63.0625 67.9375 61.6115 67.9375 59.8281V58H69.0625C69.2535 58 69.4412 57.9856 69.625 57.9591V63.7656C69.625 64.3084 69.1834 64.75 68.6406 64.75Z" fill="#00769D"/>
<path d="M50.5999 46.5L48 49L50.5999 51.5M58.4001 46.5L61 49L58.4001 51.5M53.1997 54L55.7997 44" stroke="#00769D" stroke-width="2" stroke-linecap="round" stroke-linejoin="round"/>
<defs>
<filter id="filter0_d_3524:17091" x="0" y="0" width="110" height="110" filterUnits="userSpaceOnUse" color-interpolation-filters="sRGB">
<feFlood flood-opacity="0" result="BackgroundImageFix"/>
<feColorMatrix in="SourceAlpha" type="matrix" values="0 0 0 0 0 0 0 0 0 0 0 0 0 0 0 0 0 0 127 0" result="hardAlpha"/>
<feOffset dy="6"/>
<feGaussianBlur stdDeviation="7.5"/>
<feColorMatrix type="matrix" values="0 0 0 0 0.164706 0 0 0 0 0.439216 0 0 0 0 0.690196 0 0 0 0.15 0"/>
<feBlend mode="normal" in2="BackgroundImageFix" result="effect1_dropShadow_3524:17091"/>
<feBlend mode="normal" in="SourceGraphic" in2="effect1_dropShadow_3524:17091" result="shape"/>
</filter>
</defs>
</svg>
